X: 1
T:Polska efter J P Bergstrm, Glte
R:polska
S:SvL JH 753
A:Funsdalen, Hrjedalen
B:Sv. Ltar Jmtland-Hrjedalen
M:3/4
L:1/8
Q:144
K:D
({AB}AG) (FG) Ad|(3B(AB) [G2B2] [E2B2]|[e2e2] (cd) ef|(gf) (dc) (A2|{AB}
A)(G FG) Ad|(3B(AB) [G2B2] [E2B2]|[e2e2] (cd) ef|((3gec) [D4d4]::({g}(3
fef) (gf) ed|(3c(Bc) (dB) (BA)|G(F EG) FA|(G<B) [A4A4]|({g}(3fef) (gf) e
d|(
3c(Bc) (dB) (BA)|G(F EG) FA|(3ABc [D4d4]:|
